X:17
T:Swaggering Jig, The
T:Give us a Drink of Water
R:slip jig
H:See also #15
D:Matt Molloy & Sean Keane: Contentment is Wealth
Z:id:hn-slipjig-17
M:9/8
K:G
GBd gdc BAG|BdB cAG ~A3|GBd gdc BAG|1 BcA BGF G2D:|2 BcA BGF G2d||
~g3 efg fed|~g3 efg a2f|~g3 bag fed|efg agf g2d|
~g3 efg fed|~g3 efg ~a3|bag agf ged|efg agf gdB||
<end>
<start>
